X: 91
T: 9th Of July, The
R: jig
M: 6/8
K: Dminor
|:G|Add cec|AGE DCA,|A,DE FEF|c=Bc GEC|
Ddd cec|AGE DCA,|A,DE FEF|GEC D2:|
|:G|Ade ~f3|gfg afd|c=Bc ecc|gcc edc|
Ade ~f3|gfg afd|c=Bc AGE|EDC D2:|

